X: 42567
T: When Sick Is It Tea That You Want?
R: jig
M: 6/8
K: Dmajor
B|:Add dcB|AFB AFG|Add cde|fdB {c}BAF|
Add dcB|AFB AFG|(3A/d/A/d cde|1 fdc dcB:|2 fdc dfg||
|:afd dcd|BGF G ga|bge {a}efd|cAA AFG|
Afg fdB|AFB AFG|(3A/d/A/d cde|1 fdc dfg:|2 fdc d2||

